!!!OTL: St. Martinslied Sente Maertes Voegelken
!!!ARE: Europa, Mitteleuropa, Deutschland, Niederfranken
!!!SCT: D0152
!!!YEM: Copyright 1995, estate of Helmut Schaffrath.
**kern
*ICvox
*Ivox
*M4/4
*k[]
*C:
{4g
4g
4a
4a
=1
4g
4g
2e}
=2
{4g
4g
4a
4a
=3
4g
4g
4e}
{4a
=4
2g
4e
4a
=5
2g
4e
4e
=6
8g
8g
4g
2e}
=7
{4g
4g
4a
4a
=8
4g
4g
2e}
=9
{2g
4a
4a
=10
2g
2e}
=11
{4g
4g
4a
4a
=12
2g
2e}
=13
{4g
4g
4g
8e
8e
=14
4a
4a
2a}
=15
{4g
4g
4g
4a
=16
4f
4f
2f}
=17
{2g
2e
=18
2g
2e}
=19
{4g
4g
4a
4a
=20
2g
2e}
=21
{4g
4g
4g
4e
=22
4a
4a
2a}
=23
{8f
8f
8f
8f
4f
4g
=24
4e
4e
2e}
==
!!!AGN: Ansinge - Lied
!! haeufig wiederholte Taktformeln; Inzipit = Variante zum Lied
!!!ONB: ESAC (Essen Associative Code) Database: DVA
!!!AMT: simple quadruple
!!!AIN: vox
!!!EED: Helmut Schaffrath
!!!EEV: 1.0
*-
